img/interface.svg

<?xml version="1.0" encoding="UTF-8"?>
<svg width="121px" height="86px" viewBox="0 0 121 86" version="1.1" xmlns="http://www.w3.org/2000/svg" xmlns:xlink="http://www.w3.org/1999/xlink">
    <title>interface</title>
    <g id="Page-1" stroke="none" stroke-width="1" fill="none" fill-rule="evenodd">
        <g id="interface">
            <rect id="Rectangle" stroke="current" stroke-width="6.5" x="3.25" y="3.25" width="114.4" height="79.3"></rect>
            <path d="M20.8,60.1484004 L45.066667,57.3930996 L70.1490195,41.5393581 L93.6,32.5 L93.6,34.8275687 L70.1490195,44.3209813 L45.066667,59.8022777 L20.8,62.4 M24.7,61.7499956 C24.7,64.2628973 22.6628949,66.3 20.15,66.3 C17.6371042,66.3 15.6,64.2628973 15.6,61.7499956 C15.6,59.2371036 17.6371042,57.2 20.15,57.2 C22.6628949,57.2 24.7,59.2371036 24.7,61.7499956 M49.4,59.1500041 C49.4,61.6629013 47.0718805,63.7 44.2,63.7 C41.3281206,63.7 39,61.6629013 39,59.1500041 C39,56.6370987 41.3281206,54.6 44.2,54.6 C47.0718805,54.6 49.4,56.6370987 49.4,59.1500041 M75.4,42.9 C75.4,45.7718798 73.0718794,48.1 70.2,48.1 C67.3281206,48.1 65,45.7718798 65,42.9 C65,40.0281202 67.3281206,37.7 70.2,37.7 C73.0718794,37.7 75.4,40.0281202 75.4,42.9 M98.8,33.7999953 C98.8,36.6718777 96.4718878,39 93.6000058,39 C90.7281237,39 88.4,36.6718777 88.4,33.7999953 C88.4,30.9281128 90.7281237,28.6 93.6000058,28.6 C96.4718878,28.6 98.8,30.9281128 98.8,33.7999953 Z" id="Shape" fill="current"  fill-rule="nonzero" stroke-width="1.0" stroke="current"></path>
            <line x1="4.74195523" y1="19.3491185" x2="114.4" y2="19.3491185" id="Path-22" stroke="current" stroke-width="3.9"></line>
            <circle id="Oval" stroke="current" stroke-width="2.3" fill="current" cx="11.05" cy="12.35" r="1.3"></circle>
            <circle id="Oval-Copy-15" stroke="current" stroke-width="2.3" fill="current" cx="17.55" cy="12.35" r="1.3"></circle>
            <circle id="Oval-Copy-16" stroke="current" stroke-width="2.3" fill="current" cx="24.05" cy="12.35" r="1.3"></circle>
            <polyline id="Path-23" stroke="current" stroke-width="2.6" points="11.05 26.6785526 11.05 71.3200342 106.521585 71.3200342"></polyline>
        </g>
    </g>
</svg>

<svg width="121" height="86" viewBox="0 0 121 86" xmlns="http://www.w3.org/2000/svg" class="featureSvg__8YW" stroke="#5332CA" fill="#5332CA" alt="Experiments"><title>interface</title><g stroke="current" fill="none" fill-rule="evenodd"><path stroke-width="6.5" d="M3.25 3.25h114.4v79.3H3.25z"></path><path d="m20.8 60.148 24.267-2.755L70.149 41.54 93.6 32.5v2.328L70.149 44.32 45.067 59.802 20.8 62.4m3.9-.65a4.55 4.55 0 1 1-9.1 0 4.55 4.55 0 0 1 9.1 0m24.7-2.6c0 2.513-2.328 4.55-5.2 4.55-2.872 0-5.2-2.037-5.2-4.55s2.328-4.55 5.2-4.55c2.872 0 5.2 2.037 5.2 4.55m26-16.25a5.2 5.2 0 1 1-10.4 0 5.2 5.2 0 0 1 10.4 0m23.4-9.1a5.2 5.2 0 1 1-10.4 0 5.2 5.2 0 0 1 10.4 0Z" fill="current" fill-rule="nonzero"></path><path stroke-width="3.9" d="M4.742 19.349H114.4"></path><circle stroke-width="2.3" fill="current" cx="11.05" cy="12.35" r="1.3"></circle><circle stroke-width="2.3" fill="current" cx="17.55" cy="12.35" r="1.3"></circle><circle stroke-width="2.3" fill="current" cx="24.05" cy="12.35" r="1.3"></circle><path stroke-width="2.6" d="M11.05 26.679V71.32h95.472"></path></g></svg>
